blockchains/ethereum/assets/0x8f8221aFbB33998d8584A2B05749bA73c37a938a/logo.svg

<svg fill="none" height="250" viewBox="0 0 250 250" width="250" xmlns="http://www.w3.org/2000/svg" xmlns:xlink="http://www.w3.org/1999/xlink"><clipPath id="a"><path d="m0 0h250v250h-250z"/></clipPath><g clip-path="url(#a)"><path d="m165.649 140.459 62.73-62.5359c2.33-2.3219 4.178-5.0823 5.437-8.122 1.258-3.0397 1.902-6.2985 1.895-9.5884l.106-50.54548c-.006-2.59301-1.008-5.08468-2.798-6.96019l-120.342 120.07697c-2.339 2.318-4.196 5.077-5.463 8.116-1.267 3.04-1.919 6.301-1.919 9.594s.652 6.554 1.919 9.594c1.267 3.039 3.124 5.798 5.463 8.116l84.85 84.585c2.326 2.314 5.085 4.148 8.119 5.396s6.285 1.886 9.566 1.877c3.281-.008 6.528-.662 9.556-1.925s5.777-3.111 8.091-5.436c2.315-2.326 4.148-5.085 5.396-8.119s1.886-6.285 1.878-9.566c-.009-3.281-.663-6.528-1.926-9.556s-3.11-5.777-5.436-8.092z" fill="#008c62"/><path d="m226.006-.00151922h-189.0236c-15.284 0-26.5656 11.54721922-26.5656 27.30941922v197.2051c-.0428 3.351.5858 6.677 1.849 9.781 1.2631 3.103 3.1351 5.923 5.5055 8.292s5.1913 4.239 8.2961 5.5c3.1048 1.26 6.4308 1.887 9.7816 1.842 3.3533.057 6.6839-.561 9.7933-1.818s5.9341-3.126 8.3056-5.498c2.3715-2.371 4.2413-5.196 5.4982-8.305 1.2568-3.11 1.8748-6.44 1.8173-9.794v-175.8641h125.7436l46.047-45.81676c-.922-.92456-2.022-1.6524-3.234-2.13947-1.211-.487067-2.509-.7232274-3.814-.69418922z" fill="#00e6a0"/></g></svg>

<svg width="250" height="250" viewBox="0 0 250 250" fill="none" xmlns="http://www.w3.org/2000/svg">
<g clip-path="url(#clip0_31_1105)">
<path d="M165.649 140.459L228.379 77.9231C230.709 75.6012 232.557 72.8408 233.816 69.8011C235.074 66.7614 235.718 63.5026 235.711 60.2127L235.817 9.66722C235.811 7.07421 234.809 4.58254 233.019 2.70703L112.677 122.784C110.338 125.102 108.481 127.861 107.214 130.9C105.947 133.94 105.295 137.201 105.295 140.494C105.295 143.787 105.947 147.048 107.214 150.088C108.481 153.127 110.338 155.886 112.677 158.204L197.527 242.789C199.853 245.103 202.612 246.937 205.646 248.185C208.68 249.433 211.931 250.071 215.212 250.062C218.493 250.054 221.74 249.4 224.768 248.137C227.796 246.874 230.545 245.026 232.859 242.701C235.174 240.375 237.007 237.616 238.255 234.582C239.503 231.548 240.141 228.297 240.133 225.016C240.124 221.735 239.47 218.488 238.207 215.46C236.944 212.432 235.097 209.683 232.771 207.368L165.649 140.459Z" fill="#008C62"/>
<path d="M226.006 -0.00151922H36.9824C21.6984 -0.00151922 10.4168 11.5457 10.4168 27.3079V224.513C10.374 227.864 11.0026 231.19 12.2658 234.294C13.5289 237.397 15.4009 240.217 17.7713 242.586C20.1417 244.955 22.9626 246.825 26.0674 248.086C29.1722 249.346 32.4982 249.973 35.849 249.928C39.2023 249.985 42.5329 249.367 45.6423 248.11C48.7517 246.853 51.5764 244.984 53.9479 242.612C56.3194 240.241 58.1892 237.416 59.4461 234.307C60.7029 231.197 61.3209 227.867 61.2634 224.513V48.6489H187.007L233.054 2.83214C232.132 1.90758 231.032 1.17974 229.82 0.69267C228.609 0.205603 227.311 -0.0305574 226.006 -0.00151922Z" fill="#00E6A0"/>
</g>
<defs>
<clipPath id="clip0_31_1105">
<rect width="250" height="250" fill="white"/>
</clipPath>
</defs>
</svg>
